src/assets/svgicons/gruop-hoodi.svg

<svg width="36" height="37" viewBox="0 0 36 37" fill="none" xmlns="http://www.w3.org/2000/svg">
<g clip-path="url(#clip0_1108_260)">
<path d="M6.25967 36.0266H0C0 35.5819 0 35.1359 0 34.6905C0.0239591 34.6038 0.0606025 34.5186 0.070468 34.4305C0.244524 32.9669 0.412238 31.5018 0.588408 30.0382C0.835046 27.982 1.09084 25.9271 1.33466 23.8701C1.55805 21.9879 1.76734 20.1036 1.99072 18.2207C2.26061 15.9432 2.53896 13.6664 2.81308 11.3896C2.97446 10.0485 3.63333 9.02183 4.83481 8.41087C6.08491 7.77525 7.36955 7.20728 8.64502 6.62451C8.85431 6.52867 8.94873 6.43424 8.93605 6.18831C8.87827 5.05095 9.25245 4.04467 9.93811 3.15466C10.9092 1.89328 12.2276 1.13787 13.7131 0.650931C15.8701 -0.0551585 18.08 -0.146767 20.3068 0.182319C22.0051 0.433185 23.6061 0.975084 24.9675 2.06804C26.3071 3.14409 27.1069 4.50412 27.0569 6.27287C27.0506 6.49696 27.1781 6.54699 27.3275 6.61675C28.5987 7.21009 29.8791 7.78441 31.137 8.40523C32.199 8.92951 32.8459 9.81741 33.0967 10.9646C33.2257 11.5559 33.2609 12.1682 33.3328 12.7721C33.5097 14.247 33.6823 15.7226 33.8585 17.1982C34.0332 18.6619 34.2115 20.1255 34.3856 21.5891C34.566 23.0985 34.7436 24.6086 34.9218 26.1188C35.1191 27.7924 35.3158 29.466 35.5138 31.1396C35.6625 32.3947 35.79 33.6532 35.9739 34.9026C36.0472 35.4029 35.9789 35.7771 35.5159 36.0266H29.7488C29.4289 35.8518 29.2562 35.5904 29.2104 35.2211C29.0962 34.2924 28.9645 33.3664 28.8369 32.4398C28.739 31.7294 28.6375 31.0191 28.5381 30.3095C28.4923 31.4405 28.4874 32.5652 28.4952 33.6899C28.498 34.0894 28.3303 34.36 27.9617 34.5087C27.8102 34.57 27.6608 34.6377 27.5065 34.6926C25.5778 35.3881 23.5723 35.7003 21.5407 35.8849C21.0178 35.9329 20.4956 35.9794 19.9728 36.0266H15.9638C15.8856 36.0076 15.8088 35.9787 15.7292 35.9709C14.682 35.8694 13.6313 35.8018 12.5891 35.6651C11.0578 35.4635 9.55546 35.1295 8.11228 34.5559C7.66199 34.3769 7.45552 34.0746 7.46256 33.5912C7.47454 32.7364 7.46679 31.8817 7.4675 31.0269C7.4675 30.8563 7.4675 30.6858 7.4675 30.516C7.20254 31.9768 7.00382 33.4348 6.81144 34.8928C6.75295 35.3353 6.70221 35.7757 6.25756 36.0266H6.25967ZM23.945 10.2663C24.1015 10.9026 24.2509 11.4861 24.3862 12.0724C24.4411 12.3113 24.4735 12.5558 24.501 12.7996C24.5398 13.1505 24.4595 13.4655 24.2262 13.7474C23.8873 14.1561 23.9147 14.567 24.2755 14.858C24.5969 15.1173 25.0457 15.0475 25.365 14.6882C25.8434 14.1505 26.0591 13.5092 25.9696 12.8081C25.8787 12.0928 25.7074 11.3867 25.5595 10.6792C25.4136 9.9809 25.2268 9.29031 25.4199 8.56731C25.5369 8.13041 25.4129 7.81048 25.0873 7.62656C24.7716 7.44828 24.4348 7.52791 24.1163 7.85911C24.0592 7.9183 24.0063 7.98102 23.9514 8.04162C23.1868 8.8823 22.4567 9.75681 21.6506 10.5552C20.4054 11.7877 18.8784 12.2422 17.1463 11.9808C15.8257 11.7814 14.7701 11.1168 13.8984 10.1232C13.2268 9.35725 12.5398 8.60395 11.8513 7.85347C11.4447 7.40952 10.8965 7.42079 10.6076 7.89927C9.92119 9.03663 9.56956 10.2508 9.89653 11.5847C10.0657 12.2767 10.2707 12.9596 10.4377 13.6516C10.5026 13.9215 10.4786 14.2132 10.5455 14.4817C10.6379 14.8516 10.9754 15.0475 11.3531 14.9989C11.7033 14.9538 11.9584 14.6734 11.9605 14.2971C11.9619 14.0293 11.9648 13.753 11.9056 13.4951C11.7442 12.7905 11.5497 12.0928 11.3686 11.3924C11.2171 10.8075 11.2093 10.2311 11.4511 9.61305C11.9901 10.2127 12.4905 10.7821 13.0056 11.3388C14.1916 12.6206 15.6587 13.3718 17.3964 13.5099C19.6669 13.6903 21.571 12.8947 23.098 11.2042C23.3707 10.9026 23.6434 10.601 23.9457 10.267L23.945 10.2663Z" fill="#AAAAAA"/>
</g>
<defs>
<clipPath id="clip0_1108_260">
<rect width="36" height="36.0268" fill="white"/>
</clipPath>
</defs>
</svg>

<svg viewBox="0 0 36 37" xmlns="http://www.w3.org/2000/svg"><g><path d="M6.26 36.027H0V34.69c.024-.086.06-.171.07-.26.175-1.463.342-2.928.518-4.392.247-2.056.503-4.11.747-6.168.223-1.882.432-3.766.656-5.65.27-2.277.548-4.554.822-6.83.161-1.341.82-2.368 2.022-2.98 1.25-.635 2.535-1.203 3.81-1.785.21-.096.304-.19.291-.437-.058-1.137.316-2.143 1.002-3.033.971-1.262 2.29-2.017 3.775-2.504 2.157-.706 4.367-.798 6.594-.469 1.698.251 3.3.793 4.66 1.886 1.34 1.076 2.14 2.436 2.09 4.205-.006.224.121.274.27.344 1.272.593 2.552 1.167 3.81 1.788 1.062.525 1.709 1.412 1.96 2.56.129.59.164 1.203.236 1.807q.264 2.212.526 4.426.263 2.195.527 4.391.27 2.265.536 4.53l.592 5.02c.148 1.256.276 2.514.46 3.764.073.5.005.874-.458 1.124h-5.767c-.32-.175-.493-.437-.539-.806-.114-.929-.245-1.855-.373-2.781q-.149-1.065-.299-2.13a71 71 0 0 0-.043 3.38c.003.4-.165.67-.533.819-.152.061-.301.129-.456.184-1.928.695-3.934 1.007-5.965 1.192l-1.568.142h-4.01c-.077-.02-.154-.048-.234-.056-1.047-.102-2.098-.17-3.14-.306-1.531-.201-3.034-.535-4.477-1.11-.45-.178-.656-.48-.65-.964.013-.855.005-1.71.006-2.564v-.511c-.265 1.46-.464 2.919-.657 4.377-.058.442-.109.883-.553 1.134zm17.685-25.76c.157.636.306 1.22.441 1.805.055.24.088.484.115.728a1.2 1.2 0 0 1-.275.947c-.339.41-.311.82.05 1.111.32.26.77.19 1.089-.17.478-.538.694-1.179.605-1.88-.091-.715-.263-1.421-.41-2.129-.146-.698-.333-1.389-.14-2.112.117-.437-.007-.757-.333-.94-.315-.179-.652-.1-.97.232-.058.06-.11.122-.166.183-.764.84-1.494 1.715-2.3 2.513-1.246 1.233-2.773 1.687-4.505 1.426-1.32-.2-2.376-.864-3.248-1.858-.671-.766-1.358-1.519-2.047-2.27-.406-.443-.955-.432-1.243.046-.687 1.138-1.038 2.352-.711 3.686.169.692.374 1.375.54 2.067.066.27.042.561.109.83.092.37.43.566.807.517a.69.69 0 0 0 .607-.702c.002-.268.005-.544-.054-.802-.162-.704-.356-1.402-.537-2.103-.152-.585-.16-1.16.082-1.779.54.6 1.04 1.17 1.555 1.726 1.186 1.282 2.653 2.033 4.39 2.17 2.27.181 4.175-.614 5.702-2.305z"/></g></svg>
